X:8
T:Horace Hanesworth
C:Larry Ungar
M:4/4
R:reel
Q:1/2=120
L:1/8
K:D
"D"A2B2 c2d2|"D"efff edBA|"D"A2B2 c2a2|"D"fed2 "A"e4|
"D"A2B2 c2d2|"D"efff edBA|"D"a4f4|"G"edB2 "A"A4:|
|:"Bm"BAF2 BAF2|"Bm"A2B2 BAF2|"Bm"BAF2 BAF2|"A"EDEF A4|
"Bm"BAF2 BAF2|"Bm"A2B2 BAF2|"G"Bdd2 "D"BAFD|"A"EDEF "D"D4:|
%%newpage
